X:1
T:Title
%%score ( 1 2 ) { 3 | 4 }
L:1/8
Q:1/4=107
M:4/4
K:Eb
V:1 treble nm="Grand Piano, Soprano"
V:2 treble 
V:3 bass nm="Choir Pad, �I Take���He Undertakes�"
V:4 bass 
V:1
 [EG]2 [EB]2- [EB][B,E] [B,E]2 | [B,F]2 [B,E]2- [B,E][B,D] [B,D]2 | [DA]2 [Dc]2- [Dc][DF] [DF]2 | %3
w: By~Charles~Henry~Forrest * * * *|||
 [DA]2 [DA]2- [DA][EG] [EG]2 | [FB]2 [Ee]2- [Ee][Ee] [EG]2 | [EA]2 [EB]2- [EB]E E2 | E2 [EF]6 | %7
w: ||||
 [EG]2 [DF]2- [DF]E E2 | [EG]2 [EG]2- [EG][EG] [EA]2 | [EB]2 [Ec]6 | [Ec]2 [DF]2- [DF][DF] [DG]2 | %11
w: ||||
 [DA]2 [EB]6 | [EB]2 [EB]2- [EB][EB] [Ac]2 | [Ad]2 [Ge]2 [EB]2 [EA]2 | [EG]2 F2- F/ z/ F [DG]2 | %15
w: ||||
 [DF]2 E6- | E2 z2 z4 |] %17
w: ||
V:2
 x8 | x8 | x8 | x8 | x8 | x8 | x8 | x8 | x8 | x8 | x8 | x8 | x8 | x8 | z4 z .E3 | x8 | x8 |] %17
V:3
 B,2 G,2- G,G, G,2 | G,2 A,2- A,A, A,2 | F,2 A,2- A,A, A,2 | =B,2 B,2- B,_B, B,2 | %4
 B,2[K:treble] C2- CC C2 | C2[K:bass] B,2- B,B, B,2 | C2 C6 | A,2 A,2- A,G, G,2 | %8
 B,2 B,2- B,B, A,2 | G,2 A,6 | A,2 B,2- B,B, B,2 | B,2 B,6 | B,2 B,2- B,B, B,2 | B,2 B,2 G,2 A,2 | %14
 B,2 C2 C2 B,2 | A,2 G,6- | G,2 z2 z4 |] %17
V:4
 E,2 E,2- E,E, E,2 | E,2 F,2- F,F, F,2 | B,,2 B,,2- B,,B,, B,,2 | B,,2 E,2- E,E, E,2 | %4
 D,2 C,2- C,C, C,2 | C,2 G,,2- G,,G,, G,,2 | C,2 A,,6 | F,,2 B,,2- B,,E, E,2 | E,2 E,2- E,E, C,2 | %9
 B,,2 A,,6 | A,,2 A,2- A,A, A,2 | A,2 G,6 | G,2 G,2- G,G, F,2 | F,2 E,2 _D,2 C,2 | %14
 B,,2 A,,2 A,,2 B,,2 | B,,2 E,6- | E,2 z2 z4 |] %17

